X: 547
T: Derdimi Anlatırdım...
C: Tahsin Karakuş
O: Turkey
F: http://compmusic.upf.edu/node/140
N: ussak--sarki--curcuna--derdimi_anlatirdim--tahsin_karakus
N: makam= ussak
N: form= sarki
N: usul= curcuna = 10/8
M: 10/8
L: 1/16
K: C _2/4B   
Q: 1/4=168
%%MIDI tuningsystem comma53
e2f2 g2a2 g2f2 e2f4z2  | e2f2 g2a4g2 f2e4d2  | \
w:  ARANAĞME  |   | 
d2c2 d2e2 f2e2 d2c4_3/4B2  | 
w:   | 
A2G2 A2B2 c2d2 e2f2 g2a2  | a4 c'2b2 a2g2 f2e2 d2c2  | \
w:   |   | 
A2B2 d2c2 B2B2 A2A4z2  | 
w:   | 
e2f2 g2a2 g2f2 e2f4z2  | e2f2 g2a4g2 f2e4d2  | \
w:  ARANAĞME  |   | 
d2c2 d2e2 f2e2 d2c4_3/4B2  | 
w:   | 
A2G2 A2B2 c2d2 e2f2 g2a2  | a4 c'2b2 a2g2 f2e2 d2c2  | \
w:   |   | 
A2B2 d2c2 B2B2 A2A4z2  | 
w:   | 
A6g4f2 e2d4B2  | c2d2 c2B2 A2A2 {c}BAA4z2  | \
w:  Der di mi  *  an  |  la *  tır *  *  dım   | 
c4 d2d4d4d6  | 
w:  ıs *  sız  ge ce  | 
d6d2 e2ed cBc4z2  | d2e2 f2g2 a2a2 g2f3ed2  | \
w:  ler  a *  ya    |  ıs *  *  sız  *  ge *  ce  | 
d3c B2c2 d2{e}d8z2  | 
w:  ler  *  *  a *  *  ya    | 
e2g2 f2e2 d2c2 _3/4B2A6  | A6g4f2 e2d4B2  | \
w:  SAZ  |  Der di mi  *  an  | 
c2d2 c2B2 A2A2 {c}BAA4z2  | 
w:  la *  tır *  *  dım   | 
c4 d2d4d4d6  | d6d2 e2ed cBc4z2  | d2e2 f2g2 a2a2 g2f3ed2  | 
w:  ıs *  sız  ge ce  |  ler  a *  ya    |  ıs *  *  sız  *  ge *  ce  | 
d3c B2c2 d2{e}d8z2  | e2g2 f2e2 d2e2 c2d6  | \
w:  ler  *  *  a *  *  ya    |  SAZ  | 
z4 g2f2 e2f4f4e2  | 
w:  Ne  ka *  dar  a  | 
e4 d2d2 e2ed cBc4z2  | d6a4g2 f2e4d2  | \
w:  cı  *  çek *  tim   |  gün le ri  *  sa  | 
d4 e2e2 d2c2 B2c4B2  | 
w:  ya  *  sa *  ya    | 
c2B2 A2A4A4A4G2  | d3c B2B2 A2A8z2  | \
w:  gün *  *  le ri  sa  |  ya  *  *  sa *  ya    | 
e2g2 f2e2 d2e2 c2d6  | 
w:  SAZ  | 
z4 g2f2 e2f4f4e2  | e4 d2d2 e2ed cBc4z2  | \
w:  Ne  ka *  dar  a  |  cı  *  çek *  tim   | 
d6a4g2 f2e4d2  | 
w:  gün le ri  *  sa  | 
d4 e2e2 d2c2 B2c4B2  | c2B2 A2A4A4A4G2  | \
w:  ya  *  sa *  ya    |  gün *  *  le ri  sa  | 
d3c B2B2 A2A8z2  | 
w:  ya  *  *  sa *  ya    | 
z4 g2^f2 e2f2 g2a6  | z4 g2a4a4a6  | \
w:  SAZ  |  Be nim  çün  ya  | 
a6c'2 baa8z2  | a2g2 f2f4f2 e2f4z2  | 
w:  nan  kal *  *  bin   |  şim *  *  di  sön *  müş   | 
e2f2 g2a4g2 f2e4d2  | d2e2 f2g2 a2a2 g2f3ed2  | \
w:  bir  *  *  ka ya    |  şim *  *  di  *  sön *  müş   | 
d3c B2c2 d2d8z2  | 
w:  bir  *  *  ka *  ya    | 
e2d2 f2e2 d2e2 c2d6  | z4 g2f2 e2f4f4e2  | \
w:  SAZ  |  Ne  ka *  dar  a  | 
e4 d2d2 e2ed cBc4z2  | 
w:  cı  *  çek *  tim   | 
d6a4g2 f2e4d2  | d4 e2e2 d2c2 B2c4B2  | \
w:  gün le ri  *  sa  |  ya  *  sa *  ya    | 
c2B2 A2A4A4A4G2  | 
w:  gün *  *  le ri  sa  | 
d3c B2B2 A2A8z2  | |


